X: 291
T: The Bold Deserter
B: O'Neill's 291
N: "Moderate"
N: "Collected by Mrs.Cantwell"
Z: 1997 by John Chambers <jc@trillian.mit.edu>
M: C
L: 1/8
K:D
(fe) \
| d2A2 B2(AF) | (AB)(de) (fe)(dB) | (AF)(EF) D2D2 | D6 || (DE) |
| F2A2 d2(ef) | g2f2 e2(de) | (fe)(dB) (AF)(EF) | A6 (DE) |
| F2A2 d2(ef) | g2f2 e2(de) | (fe)(dB) (AF)(EF) | A6 (fe) |
| d2A2 B2(AF) | (AB)(de) (fe)(dB) | (AF)(EF) D2D2 | D6 ||


